;FLAVOR:Marlin
;TIME:10706

;Filament used: 6.42551m
;Layer height: 0.2
;MINX:67.55
;MINY:74.251
;MINZ:0.2
;MAXX:152.45
;MAXY:145.749
;MAXZ:43.2
;Generated with Cura_SteamEngine 4.7.1
M140 S60
M105
M190 S60
M104 S200
M105
M109 S200
M82 ;absolute extrusion mode
; Ender 3 Custom Start G-code
G92 E0 ; Reset Extruder
G28 ; Home all axes
G1 Z2.0 F3000 ; Move Z Axis up little to prevent scratching of Heat Bed
G1 X0.1 Y20 Z0.3 F5000.0 ; Move to start position
G1 X0.1 Y200.0 Z0.3 F1500.0 E15 ; Draw the first line
G1 X0.4 Y200.0 Z0.3 F5000.0 ; Move to side a little
G1 X0.4 Y20 Z0.3 F1500.0 E30 ; Draw the second line
G92 E0 ; Reset Extruder
G1 Z2.0 F3000 ; Move Z Axis up little to prevent scratching of Heat Bed
G1 X5 Y20 Z0.3 F5000.0 ; Move over to prevent blob squish
G92 E0
G92 E0
G1 F1500 E-6.51
;LAYER_COUNT:216
;LAYER:0
M107
G0 F6000 X80.725 Y77.747 Z0.2
;TYPE:SKIRT
G1 F1500 E0
G1 F1200 X81.394 Y77.09 E0.03119
G1 X82.117 Y76.492 E0.06239
G1 X82.888 Y75.958 E0.09359
G1 X83.702 Y75.492 E0.12478
G1 X84.552 Y75.097 E0.15596
G1 X85.433 Y74.776 E0.18714
G1 X86.338 Y74.53 E0.21834
G1 X87.261 Y74.363 E0.24953
G1 X88.419 Y74.266 E0.28818
G1 X88.743 Y74.256 E0.29897
G1 X89.082 Y74.251 E0.31024
G1 X126.196 Y74.253 E1.54466
G1 X126.894 Y74.263 E1.56788
G1 X127.83 Y74.317 E1.59906
G1 X128.758 Y74.449 E1.63024
G1 X129.672 Y74.661 E1.66144
G1 X130.564 Y74.95 E1.69263
G1 X131.429 Y75.313 E1.72383
G1 X132.259 Y75.749 E1.75501
G1 X133.05 Y76.254 E1.78623
G1 X133.794 Y76.825 E1.81742
G1 X134.487 Y77.457 E1.84862
G1 X135.124 Y78.145 E1.8798
G1 X135.699 Y78.886 E1.911
G1 X136.21 Y79.672 E1.94218
G1 X136.652 Y80.5 E1.97339
G1 X137.11 Y81.604 E2.01315
G1 X137.238 Y81.974 E2.02617
G1 X137.376 Y82.395 E2.04091
G1 X151.753 Y128.177 E3.63694
G1 X151.98 Y128.937 E3.66332
G1 X152.21 Y129.846 E3.69451
G1 X152.361 Y130.772 E3.72571
G1 X152.431 Y131.671 E3.7557
G1 X152.438 Y131.859 E3.76196
G1 X152.445 Y132.135 E3.77114
G1 X152.45 Y132.6 E3.78661
G1 X152.449 Y134.149 E3.83813
G1 X152.44 Y134.876 E3.86231
G1 X152.389 Y135.813 E3.89352
G1 X152.257 Y136.741 E3.9247
G1 X152.048 Y137.655 E3.95588
G1 X151.761 Y138.548 E3.98708
G1 X151.399 Y139.414 E4.0183
G1 X150.965 Y140.245 E4.04948
G1 X150.461 Y141.036 E4.08068
G1 X149.892 Y141.781 E4.11186
G1 X149.261 Y142.476 E4.14308
G1 X148.574 Y143.114 E4.17426
G1 X147.835 Y143.691 E4.20544
G1 X147.049 Y144.203 E4.23664
G1 X146.223 Y144.646 E4.26782
G1 X145.361 Y145.018 E4.29904
G1 X144.472 Y145.314 E4.33021
G1 X143.56 Y145.534 E4.36141
G1 X142.633 Y145.675 E4.3926
G1 X141.749 Y145.736 E4.42207
G1 X141.428 Y145.745 E4.43275
G1 X141.12 Y145.749 E4.443
G1 X127.364 Y145.748 E4.90052
G1 X126.666 Y145.738 E4.92374
G1 X125.73 Y145.684 E4.95492
G1 X124.652 Y145.522 E4.99118
G1 X123.741 Y145.299 E5.02238
G1 X122.852 Y145 E5.05357
G1 X122.413 Y144.819 E5.06936
G1 X121.915 Y144.601 E5.08745
G1 X120.245 Y143.847 E5.14839
G1 X117.931 Y142.878 E5.23183
G1 X115.628 Y141.99 E5.31392
G1 X113.179 Y141.125 E5.40031
G1 X110.796 Y140.359 E5.48356
G1 X108.381 Y139.656 E5.56722
G1 X105.95 Y139.024 E5.65076
G1 X103.477 Y138.454 E5.73517
G1 X101.083 Y137.973 E5.81639
G1 X98.536 Y137.536 E5.90234
G1 X96.054 Y137.183 E5.98572
G1 X93.533 Y136.896 E6.07011
G1 X91.072 Y136.687 E6.15226
G1 X88.363 Y136.534 E6.24251
G1 X88.272 Y136.53 E6.24553
G1 X87.338 Y136.449 E6.27672
G1 X86.413 Y136.289 E6.30794
G1 X85.506 Y136.05 E6.33914
G1 X84.623 Y135.735 E6.37032
G1 X83.77 Y135.346 E6.4015
G1 X82.953 Y134.886 E6.43268
G1 X82.178 Y134.357 E6.46389
G1 X81.451 Y133.765 E6.49508
G1 X80.777 Y133.113 E6.52627
G1 X80.161 Y132.405 E6.55748
G1 X79.607 Y131.648 E6.58868
G1 X79.12 Y130.847 E6.61986
G1 X78.703 Y130.007 E6.65105
G1 X78.683 Y129.955 E6.6529
G1 X78.49 Y129.527 E6.66852
G1 X77.763 Y127.858 E6.72907
G1 X76.683 Y125.561 E6.81349
G1 X75.554 Y123.326 E6.89677
G1 X74.359 Y121.117 E6.9803
G1 X73.108 Y118.951 E7.0635
G1 X71.774 Y116.788 E7.14802
G1 X70.388 Y114.675 E7.23207
G1 X69.51 Y113.403 E7.28348
G1 X69.011 Y112.609 E7.31467
G1 X68.581 Y111.776 E7.34585
G1 X68.224 Y110.908 E7.37706
G1 X67.941 Y110.014 E7.40825
G1 X67.736 Y109.099 E7.43944
G1 X67.61 Y108.17 E7.47062
G1 X67.564 Y107.332 E7.49854
G1 X67.551 Y106.529 E7.52525
G1 X67.55 Y101.858 E7.68061
G1 X67.561 Y100.999 E7.70918
G1 X67.614 Y100.062 E7.74039
G1 X67.747 Y99.134 E7.77157
G1 X67.959 Y98.22 E7.80278
G1 X68.247 Y97.328 E7.83396
G1 X68.611 Y96.463 E7.86517
G1 X69.047 Y95.633 E7.89635
G1 X69.806 Y94.495 E7.94185
G1 X71.432 Y92.358 E8.03116
G1 X72.895 Y90.319 E8.11463
G1 X74.312 Y88.219 E8.19889
G1 X75.664 Y86.09 E8.28277
G1 X76.965 Y83.906 E8.36732
G1 X78.167 Y81.751 E8.44939
G1 X78.691 Y80.75 E8.48697
G1 X79.084 Y80.024 E8.51443
G1 X79.566 Y79.219 E8.54564
G1 X80.114 Y78.458 E8.57683
G1 X80.725 Y77.747 E8.60801
G0 F6000 X81.051 Y77.983
G1 F1200 X81.712 Y77.342 E8.63863
G1 X82.426 Y76.76 E8.66927
G1 X83.187 Y76.243 E8.69987
G1 X83.991 Y75.793 E8.73052
G1 X84.83 Y75.416 E8.76111
G1 X85.699 Y75.112 E8.79173
G1 X86.592 Y74.885 E8.82238
G1 X87.5 Y74.736 E8.85298
G1 X88.431 Y74.666 E8.88403
G1 X88.755 Y74.656 E8.89481
G1 X89.082 Y74.651 E8.90569
G1 X126.19 Y74.653 E10.13991
G1 X126.888 Y74.663 E10.16313
G1 X127.807 Y74.716 E10.19374
G1 X128.718 Y74.849 E10.22436
G1 X129.614 Y75.06 E10.25498
G1 X130.488 Y75.348 E10.28559
G1 X131.335 Y75.711 E10.31624
G1 X132.146 Y76.146 E10.34685
G1 X132.916 Y76.65 E10.37745
G1 X133.64 Y77.219 E10.40808
G1 X134.312 Y77.849 E10.43872
G1 X134.927 Y78.534 E10.46934
G1 X135.48 Y79.27 E10.49996
G1 X135.967 Y80.051 E10.53057
G1 X136.384 Y80.872 E10.5612
G1 X136.733 Y81.737 E10.59222
G1 X136.788 Y81.893 E10.59772
G1 X136.858 Y82.099 E10.60496
G1 X136.994 Y82.515 E10.61951
G1 X151.371 Y128.297 E12.21555
G1 X151.597 Y129.051 E12.24173
G1 X151.822 Y129.944 E12.27236
G1 X151.968 Y130.853 E12.30298
G1 X152.032 Y131.686 E12.33076
G1 X152.039 Y131.874 E12.33702
G1 X152.045 Y132.14 E12.34587
G1 X152.05 Y132.6 E12.36117
G1 X152.049 Y134.144 E12.41253
G1 X152.04 Y134.871 E12.43671
G1 X151.989 Y135.79 E12.46732
G1 X151.858 Y136.702 E12.49797
G1 X151.648 Y137.598 E12.52857
G1 X151.362 Y138.473 E12.55919
G1 X151.001 Y139.32 E12.58981
G1 X150.567 Y140.132 E12.62044
G1 X150.065 Y140.904 E12.65107
G1 X149.497 Y141.629 E12.6817
G1 X148.869 Y142.302 E12.71231
G1 X148.185 Y142.918 E12.74293
G1 X147.45 Y143.472 E12.77354
G1 X146.67 Y143.961 E12.80416
G1 X145.85 Y144.38 E12.83479
G1 X144.997 Y144.726 E12.86541
G1 X144.117 Y144.997 E12.89603
G1 X143.217 Y145.19 E12.92665
G1 X142.303 Y145.305 E12.95729
G1 X141.738 Y145.336 E12.97611
G1 X141.417 Y145.345 E12.98679
G1 X141.12 Y145.349 E12.99667
G1 X127.37 Y145.348 E13.45399
G1 X126.672 Y145.338 E13.47721
G1 X125.753 Y145.285 E13.50783
G1 X124.73 Y145.13 E13.54224
G1 X123.836 Y144.911 E13.57285
G1 X122.573 Y144.453 E13.61754
G1 X122.08 Y144.237 E13.63544
G1 X120.398 Y143.477 E13.69683
G1 X118.05 Y142.495 E13.78148
G1 X115.768 Y141.614 E13.86284
G1 X113.33 Y140.753 E13.94884
G1 X110.924 Y139.98 E14.03289
G1 X108.487 Y139.271 E14.1173
G1 X106.026 Y138.631 E14.20188
G1 X103.574 Y138.066 E14.28557
G1 X101.158 Y137.58 E14.36754
G1 X98.589 Y137.14 E14.45423
G1 X96.089 Y136.783 E14.53822
G1 X93.614 Y136.503 E14.62106
G1 X91.055 Y136.285 E14.70648
G1 X88.489 Y136.14 E14.79197
G1 X88.289 Y136.131 E14.79863
G1 X87.372 Y136.05 E14.82924
G1 X86.466 Y135.891 E14.85984
G1 X85.576 Y135.653 E14.89048
G1 X84.711 Y135.339 E14.92109
G1 X83.876 Y134.951 E14.95171
G1 X83.078 Y134.492 E14.98233
G1 X82.323 Y133.965 E15.01295
G1 X81.616 Y133.375 E15.04358
G1 X80.963 Y132.726 E15.0742
G1 X80.369 Y132.023 E15.10481
G1 X79.838 Y131.271 E15.13543
G1 X79.374 Y130.475 E15.16608
G1 X79.105 Y129.904 E15.18707
G1 X79.1 Y129.906 E15.18725
G1 X78.857 Y129.367 E15.20691
G1 X78.132 Y127.703 E15.26728
G1 X77.038 Y125.375 E15.35284
G1 X75.913 Y123.148 E15.43582
G1 X74.715 Y120.933 E15.51958
G1 X73.437 Y118.721 E15.60455
G1 X72.116 Y116.58 E15.68822
G1 X70.713 Y114.441 E15.7733
G1 X69.84 Y113.176 E15.82442
G1 X69.35 Y112.396 E15.85506
G1 X68.93 Y111.577 E15.88567
G1 X68.582 Y110.724 E15.91631
G1 X68.31 Y109.845 E15.94692
G1 X68.115 Y108.945 E15.97754
G1 X67.999 Y108.032 E16.00816
G1 X67.964 Y107.326 E16.03167
G1 X67.951 Y106.523 E16.05838
G1 X67.95 Y101.858 E16.21354
G1 X67.961 Y101.004 E16.24194
G1 X68.014 Y100.085 E16.27256
G1 X68.147 Y99.174 E16.30318
G1 X68.358 Y98.278 E16.3338
G1 X68.646 Y97.404 E16.3644
G1 X69.009 Y96.557 E16.39505
G1 X69.444 Y95.746 E16.42566
G1 X70.124 Y94.737 E16.46613
G1 X71.759 Y92.588 E16.55594
G1 X73.235 Y90.531 E16.64015
G1 X74.649 Y88.436 E16.72422
G1 X76.003 Y86.304 E16.80822
G1 X77.3 Y84.126 E16.89253
G1 X78.528 Y81.925 E16.97636
G1 X78.967 Y81.084 E17.00791
G1 X79.043 Y80.941 E17.0133
G1 X79.436 Y80.215 E17.04076
G1 X79.909 Y79.425 E17.07138
G1 X80.449 Y78.679 E17.10201
G1 X81.051 Y77.983 E17.13262
G0 F6000 X81.378 Y78.22
G1 F1200 X82.029 Y77.595 E17.16263
G1 X82.734 Y77.03 E17.19268
G1 X83.486 Y76.529 E17.22274
G1 X84.279 Y76.097 E17.25277
G1 X85.107 Y75.737 E17.2828
G1 X85.963 Y75.451 E17.31282
G1 X86.842 Y75.243 E17.34286
G1 X87.736 Y75.112 E17.37292
G1 X88.443 Y75.066 E17.39648
G1 X88.767 Y75.056 E17.40726
G1 X89.082 Y75.051 E17.41774
G1 X126.184 Y75.053 E18.65176
G1 X126.882 Y75.063 E18.67498
G1 X127.784 Y75.116 E18.70503
G1 X128.677 Y75.248 E18.73505
G1 X129.555 Y75.459 E18.76509
G1 X130.411 Y75.747 E18.79512
G1 X131.238 Y76.109 E18.82515
G1 X132.03 Y76.544 E18.8552
G1 X132.781 Y77.046 E18.88525
G1 X133.484 Y77.613 E18.91529
G1 X134.134 Y78.24 E18.94533
G1 X134.726 Y78.922 E18.97536
G1 X135.256 Y79.653 E19.00539
G1 X135.718 Y80.429 E19.03543
G1 X136.111 Y81.242 E19.06547
G1 X136.356 Y81.87 E19.08789
G1 X136.411 Y82.026 E19.09339
G1 X136.568 Y82.497 E19.1099
G1 X151.033 Y128.558 E20.71566
G1 X151.214 Y129.165 E20.73673
G1 X151.433 Y130.041 E20.76676
G1 X151.574 Y130.933 E20.7968
G1 X151.632 Y131.7 E20.82238
G1 X151.639 Y131.888 E20.82864
G1 X151.645 Y132.145 E20.83719
G1 X151.65 Y132.6 E20.85233
G1 X151.649 Y134.139 E20.90351
G1 X151.64 Y134.866 E20.9277
G1 X151.589 Y135.768 E20.95774
G1 X151.458 Y136.662 E20.9878
G1 X151.249 Y137.54 E21.01781
G1 X150.963 Y138.397 E21.04786
G1 X150.602 Y139.225 E21.07791
G1 X150.17 Y140.017 E21.10791
G1 X149.669 Y140.769 E21.13797
G1 X149.103 Y141.473 E21.16801
G1 X148.478 Y142.124 E21.19803
G1 X147.797 Y142.718 E21.22808
G1 X147.066 Y143.249 E21.25813
G1 X146.292 Y143.713 E21.28815
G1 X145.479 Y144.107 E21.3182
G1 X144.635 Y144.427 E21.34822
G1 X143.765 Y144.672 E21.37828
G1 X142.878 Y144.838 E21.40829
G1 X141.727 Y144.936 E21.44671
G1 X141.406 Y144.945 E21.4574
G1 X141.12 Y144.949 E21.46691
G1 X127.376 Y144.948 E21.92404
G1 X126.678 Y144.938 E21.94725
G1 X125.776 Y144.885 E21.97731
G1 X124.809 Y144.738 E22.00984
G1 X123.932 Y144.522 E22.03988
G1 X122.733 Y144.086 E22.08231
G1 X122.244 Y143.872 E22.10007
G1 X120.555 Y143.109 E22.16171
G1 X118.213 Y142.129 E22.24615
G1 X115.909 Y141.24 E22.32829
G1 X113.448 Y140.371 E22.41509
G1 X111.043 Y139.598 E22.49911
G1 X108.594 Y138.885 E22.58395
G1 X106.112 Y138.24 E22.66924
G1 X103.671 Y137.677 E22.75256
G1 X101.199 Y137.18 E22.83643
G1 X98.682 Y136.749 E22.92136
G1 X96.154 Y136.389 E23.00629
G1 X93.622 Y136.101 E23.09105
G1 X91.112 Y135.888 E23.17483
G1 X88.444 Y135.737 E23.26371
G1 X88.307 Y135.731 E23.26827
G1 X87.408 Y135.651 E23.29829
G1 X86.518 Y135.493 E23.32836
G1 X85.647 Y135.256 E23.35838
G1 X84.8 Y134.943 E23.38841
G1 X83.984 Y134.556 E23.41845
G1 X83.205 Y134.098 E23.44851
G1 X82.47 Y133.574 E23.47853
G1 X81.784 Y132.986 E23.50858
G1 X81.153 Y132.34 E23.53862
G1 X80.581 Y131.641 E23.56866
G1 X80.074 Y130.894 E23.59868
G1 X79.634 Y130.105 E23.62873
G1 X79.47 Y129.738 E23.6421
G1 X79.464 Y129.741 E23.64232
G1 X79.223 Y129.207 E23.66181
G1 X78.491 Y127.527 E23.72276
G1 X77.399 Y125.204 E23.80813
G1 X76.264 Y122.957 E23.89186
G1 X75.047 Y120.706 E23.97697
G1 X73.805 Y118.557 E24.05953
G1 X72.458 Y116.373 E24.14487
G1 X71.024 Y114.187 E24.23183
G1 X70.169 Y112.948 E24.2819
G1 X69.689 Y112.183 E24.31193
G1 X69.279 Y111.379 E24.34195
G1 X68.942 Y110.541 E24.37199
G1 X68.68 Y109.677 E24.40202
G1 X68.495 Y108.792 E24.43209
G1 X68.39 Y107.896 E24.4621
G1 X68.364 Y107.319 E24.48131
G1 X68.351 Y106.516 E24.50802
G1 X68.35 Y101.858 E24.66295
G1 X68.361 Y101.01 E24.69115
G1 X68.414 Y100.108 E24.7212
G1 X68.546 Y99.215 E24.75123
G1 X68.757 Y98.337 E24.78126
G1 X69.045 Y97.481 E24.8113
G1 X69.407 Y96.654 E24.84133
G1 X69.841 Y95.862 E24.87137
G1 X70.442 Y94.979 E24.90689
G1 X72.087 Y92.817 E24.99725
G1 X73.559 Y90.765 E25.08124
G1 X74.991 Y88.644 E25.16636
G1 X76.351 Y86.501 E25.25078
G1 X77.635 Y84.346 E25.33421
G1 X78.89 Y82.098 E25.41984
G1 X79.395 Y81.131 E25.45613
G1 X79.788 Y80.405 E25.48359
G1 X80.253 Y79.631 E25.51362
G1 X80.784 Y78.901 E25.54364
G1 X81.378 Y78.22 E25.5737
G1 F1500 E19.0737
;MESH:review laser (1).stl
G0 F6000 X119.171 Y91.338
G0 X117.769 Y91.789
G0 X118.85 Y92.703
G0 X120.052 Y93.256
;TYPE:WALL-INNER
G1 F1500 E25.5737
G1 F1200 X120.735 Y93.149 E25.59669
G1 X121.35 Y92.834 E25.61967
G1 X121.839 Y92.346 E25.64265
G1 X122.152 Y91.73 E25.66563
G1 X122.259 Y91.049 E25.68856
G1 X122.152 Y90.367 E25.71152
G1 X121.839 Y89.751 E25.7345
G1 X121.35 Y89.262 E25.7575
G1 X120.735 Y88.949 E25.78045
G1 X120.052 Y88.84 E25.80346
G1 X119.37 Y88.949 E25.82643
G1 X118.754 Y89.262 E25.84941
G1 X118.265 Y89.751 E25.87241
G1 X117.952 Y90.367 E25.89539
G1 X117.845 Y91.049 E25.91835
G1 X117.952 Y91.73 E25.94128
G1 X118.265 Y92.346 E25.96426
G1 X118.754 Y92.834 E25.98724
G1 X119.37 Y93.149 E26.01025
G1 X120.052 Y93.256 E26.03321
G0 F6000 X120.052 Y92.851
;TYPE:WALL-OUTER
G1 F1200 X120.61 Y92.764 E26.052
G1 X121.112 Y92.507 E26.07076
G1 X121.511 Y92.108 E26.08952
G1 X121.767 Y91.605 E26.10829
G1 X121.854 Y91.049 E26.12701
G1 X121.767 Y90.492 E26.14576
G1 X121.511 Y89.989 E26.16453
G1 X121.112 Y89.59 E26.1833
G1 X120.61 Y89.334 E26.20204
G1 X120.052 Y89.245 E26.22084
G1 X119.495 Y89.334 E26.2396
G1 X118.992 Y89.59 E26.25837
G1 X118.593 Y89.989 E26.27714
G1 X118.337 Y90.492 E26.29591
G1 X118.25 Y91.049 E26.31466
G1 X118.337 Y91.605 E26.33338
G1 X118.593 Y92.108 E26.35215
G1 X118.992 Y92.507 E26.37092
G1 X119.495 Y92.764 E26.38971
G1 X120.052 Y92.851 E26.40846
G0 F6000 X120.052 Y93.291
G1 F1500 E19.90846
G0 F6000 X118.109 Y92.46
G0 X119.302 Y91.596
G0 X96.8 Y91.594
G0 X97.991 Y92.46
G0 X96.048 Y93.256
;TYPE:WALL-INNER
G1 F1500 E26.40846
G1 F1200 X96.731 Y93.149 E26.43145
G1 X97.346 Y92.834 E26.45443
G1 X97.835 Y92.346 E26.47741
G1 X98.148 Y91.731 E26.50036
G1 X98.257 Y91.049 E26.52333
G1 X98.148 Y90.366 E26.54634
G1 X97.835 Y89.751 E26.56929
G1 X97.346 Y89.262 E26.59229
G1 X96.731 Y88.949 E26.61524
G1 X96.048 Y88.84 E26.63825
G1 X95.366 Y88.949 E26.66122
G1 X94.751 Y89.262 E26.68417
G1 X94.263 Y89.751 E26.70715
G1 X93.948 Y90.366 E26.73013
G1 X93.841 Y91.049 E26.75312
G1 X93.948 Y91.731 E26.77608
G1 X94.263 Y92.346 E26.79907
G1 X94.751 Y92.834 E26.82202
G1 X95.366 Y93.149 E26.845
G1 X96.048 Y93.256 E26.86796
G0 F6000 X96.048 Y92.851
;TYPE:WALL-OUTER
G1 F1200 X96.606 Y92.764 E26.88675
G1 X97.108 Y92.507 E26.9055
G1 X97.507 Y92.108 E26.92427
G1 X97.763 Y91.606 E26.94301
G1 X97.852 Y91.049 E26.96177
G1 X97.763 Y90.491 E26.98057
G1 X97.507 Y89.989 E26.99931
G1 X97.108 Y89.59 E27.01808
G1 X96.606 Y89.334 E27.03682
G1 X96.048 Y89.245 E27.05561
G1 X95.491 Y89.334 E27.07437
G1 X94.989 Y89.59 E27.09312
G1 X94.59 Y89.989 E27.11188
G1 X94.333 Y90.491 E27.13064
G1 X94.246 Y91.049 E27.14943
G1 X94.333 Y91.606 E27.16818
G1 X94.59 Y92.108 E27.18693
G1 X94.989 Y92.507 E27.2057
G1 X95.491 Y92.764 E27.22446
G1 X96.048 Y92.851 E27.24321
