;FLAVOR:Marlin
;TIME:10706
;Filament used: 6.42551m
;Layer height: 0.2
;MINX:67.55
;MINY:74.251
;MINZ:0.2
;MAXX:152.45
;MAXY:145.749
;MAXZ:43.2
;Generated with Cura_SteamEngine 4.7.1
M140 S60
M105
M190 S60
M104 S200
M105
M109 S200
M82 ;absolute extrusion mode
; Ender 3 Custom Start G-code
G92 E0 ; Reset Extruder
G28 ; Home all axes
G1 Z2.000000 F3000.0
G1 X0.000000 Y40.000000 Z0.300000 F5000.0
G1 X0.000000 Y220.000000 Z0.300000 F1500.0 E15.0
G1 X0.000000 Y220.000000 Z0.300000 F5000.0
G1 X0.000000 Y40.000000 Z0.300000 F1500.0 E30.0
G92 E0 ; Reset Extruder
G1 Z2.000000 F3000.0
G1 X0.000000 Y40.000000 Z0.300000 F5000.0
G92 E0
G92 E0
G1 F1500.0 E-6.0
;LAYER_COUNT:216
;LAYER:0
M107
G0 F6000.0 X75.725000 Y97.747000 Z0.200000
;TYPE:SKIRT
G1 F1500.0 E0.0
G1 F1200.0 X76.394000 Y97.090000 E0.03119
G1 X77.117000 Y96.492000 E0.06239
G1 X77.888000 Y95.958000 E0.09359
G1 X78.702000 Y95.492000 E0.12478
G1 X79.552000 Y95.097000 E0.15596
G1 X80.433000 Y94.776000 E0.18714
G1 X81.338000 Y94.530000 E0.21834
G1 X82.261000 Y94.363000 E0.24953
G1 X83.419000 Y94.266000 E0.28818
G1 X83.743000 Y94.256000 E0.29897
G1 X84.082000 Y94.251000 E0.31024
G1 X121.196000 Y94.253000 E1.54466
G1 X121.894000 Y94.263000 E1.56788
G1 X122.830000 Y94.317000 E1.59906
G1 X123.758000 Y94.449000 E1.63024
G1 X124.672000 Y94.661000 E1.66144
G1 X125.564000 Y94.950000 E1.69263
G1 X126.429000 Y95.313000 E1.72383
G1 X127.259000 Y95.749000 E1.75501
G1 X128.050000 Y96.254000 E1.78623
G1 X128.794000 Y96.825000 E1.81742
G1 X129.487000 Y97.457000 E1.84862
G1 X130.124000 Y98.145000 E1.8798
G1 X130.699000 Y98.886000 E1.911
G1 X131.210000 Y99.672000 E1.94218
G1 X131.652000 Y100.500000 E1.97339
G1 X132.110000 Y101.604000 E2.01315
G1 X132.238000 Y101.974000 E2.02617
G1 X132.376000 Y102.395000 E2.04091
G1 X146.753000 Y148.177000 E3.63694
G1 X146.980000 Y148.937000 E3.66332
G1 X147.210000 Y149.846000 E3.69451
G1 X147.361000 Y150.772000 E3.72571
G1 X147.431000 Y151.671000 E3.7557
G1 X147.438000 Y151.859000 E3.76196
G1 X147.445000 Y152.135000 E3.77114
G1 X147.450000 Y152.600000 E3.78661
G1 X147.449000 Y154.149000 E3.83813
G1 X147.440000 Y154.876000 E3.86231
G1 X147.389000 Y155.813000 E3.89352
G1 X147.257000 Y156.741000 E3.9247
G1 X147.048000 Y157.655000 E3.95588
G1 X146.761000 Y158.548000 E3.98708
G1 X146.399000 Y159.414000 E4.0183
G1 X145.965000 Y160.245000 E4.04948
G1 X145.461000 Y161.036000 E4.08068
G1 X144.892000 Y161.781000 E4.11186
G1 X144.261000 Y162.476000 E4.14308
G1 X143.574000 Y163.114000 E4.17426
G1 X142.835000 Y163.691000 E4.20544
G1 X142.049000 Y164.203000 E4.23664
G1 X141.223000 Y164.646000 E4.26782
G1 X140.361000 Y165.018000 E4.29904
G1 X139.472000 Y165.314000 E4.33021
G1 X138.560000 Y165.534000 E4.36141
G1 X137.633000 Y165.675000 E4.3926
G1 X136.749000 Y165.736000 E4.42207
G1 X136.428000 Y165.745000 E4.43275
G1 X136.120000 Y165.749000 E4.443
G1 X122.364000 Y165.748000 E4.90052
G1 X121.666000 Y165.738000 E4.92374
G1 X120.730000 Y165.684000 E4.95492
G1 X119.652000 Y165.522000 E4.99118
G1 X118.741000 Y165.299000 E5.02238
G1 X117.852000 Y165.000000 E5.05357
G1 X117.413000 Y164.819000 E5.06936
G1 X116.915000 Y164.601000 E5.08745
G1 X115.245000 Y163.847000 E5.14839
G1 X112.931000 Y162.878000 E5.23183
G1 X110.628000 Y161.990000 E5.31392
G1 X108.179000 Y161.125000 E5.40031
G1 X105.796000 Y160.359000 E5.48356
G1 X103.381000 Y159.656000 E5.56722
G1 X100.950000 Y159.024000 E5.65076
G1 X98.477000 Y158.454000 E5.73517
G1 X96.083000 Y157.973000 E5.81639
G1 X93.536000 Y157.536000 E5.90234
G1 X91.054000 Y157.183000 E5.98572
G1 X88.533000 Y156.896000 E6.07011
G1 X86.072000 Y156.687000 E6.15226
G1 X83.363000 Y156.534000 E6.24251
G1 X83.272000 Y156.530000 E6.24553
G1 X82.338000 Y156.449000 E6.27672
G1 X81.413000 Y156.289000 E6.30794
G1 X80.506000 Y156.050000 E6.33914
G1 X79.623000 Y155.735000 E6.37032
G1 X78.770000 Y155.346000 E6.4015
G1 X77.953000 Y154.886000 E6.43268
G1 X77.178000 Y154.357000 E6.46389
G1 X76.451000 Y153.765000 E6.49508
G1 X75.777000 Y153.113000 E6.52627
G1 X75.161000 Y152.405000 E6.55748
G1 X74.607000 Y151.648000 E6.58868
G1 X74.120000 Y150.847000 E6.61986
G1 X73.703000 Y150.007000 E6.65105
G1 X73.683000 Y149.955000 E6.6529
G1 X73.490000 Y149.527000 E6.66852
G1 X72.763000 Y147.858000 E6.72907
G1 X71.683000 Y145.561000 E6.81349
G1 X70.554000 Y143.326000 E6.89677
G1 X69.359000 Y141.117000 E6.9803
G1 X68.108000 Y138.951000 E7.0635
G1 X66.774000 Y136.788000 E7.14802
G1 X65.388000 Y134.675000 E7.23207
G1 X64.510000 Y133.403000 E7.28348
G1 X64.011000 Y132.609000 E7.31467
G1 X63.581000 Y131.776000 E7.34585
G1 X63.224000 Y130.908000 E7.37706
G1 X62.941000 Y130.014000 E7.40825
G1 X62.736000 Y129.099000 E7.43944
G1 X62.610000 Y128.170000 E7.47062
G1 X62.564000 Y127.332000 E7.49854
G1 X62.551000 Y126.529000 E7.52525
G1 X62.550000 Y121.858000 E7.68061
G1 X62.561000 Y120.999000 E7.70918
G1 X62.614000 Y120.062000 E7.74039
G1 X62.747000 Y119.134000 E7.77157
G1 X62.959000 Y118.220000 E7.80278
G1 X63.247000 Y117.328000 E7.83396
G1 X63.611000 Y116.463000 E7.86517
G1 X64.047000 Y115.633000 E7.89635
G1 X64.806000 Y114.495000 E7.94185
G1 X66.432000 Y112.358000 E8.03116
G1 X67.895000 Y110.319000 E8.11463
G1 X69.312000 Y108.219000 E8.19889
G1 X70.664000 Y106.090000 E8.28277
G1 X71.965000 Y103.906000 E8.36732
G1 X73.167000 Y101.751000 E8.44939
G1 X73.691000 Y100.750000 E8.48697
G1 X74.084000 Y100.024000 E8.51443
G1 X74.566000 Y99.219000 E8.54564
G1 X75.114000 Y98.458000 E8.57683
G1 X75.725000 Y97.747000 E8.60801
G0 F6000.0 X76.051000 Y97.983000
G1 F1200.0 X76.712000 Y97.342000 E8.63863
G1 X77.426000 Y96.760000 E8.66927
G1 X78.187000 Y96.243000 E8.69987
G1 X78.991000 Y95.793000 E8.73052
G1 X79.830000 Y95.416000 E8.76111
G1 X80.699000 Y95.112000 E8.79173
G1 X81.592000 Y94.885000 E8.82238
G1 X82.500000 Y94.736000 E8.85298
G1 X83.431000 Y94.666000 E8.88403
G1 X83.755000 Y94.656000 E8.89481
G1 X84.082000 Y94.651000 E8.90569
G1 X121.190000 Y94.653000 E10.13991
G1 X121.888000 Y94.663000 E10.16313
G1 X122.807000 Y94.716000 E10.19374
G1 X123.718000 Y94.849000 E10.22436
G1 X124.614000 Y95.060000 E10.25498
G1 X125.488000 Y95.348000 E10.28559
G1 X126.335000 Y95.711000 E10.31624
G1 X127.146000 Y96.146000 E10.34685
G1 X127.916000 Y96.650000 E10.37745
G1 X128.640000 Y97.219000 E10.40808
G1 X129.312000 Y97.849000 E10.43872
G1 X129.927000 Y98.534000 E10.46934
G1 X130.480000 Y99.270000 E10.49996
G1 X130.967000 Y100.051000 E10.53057
G1 X131.384000 Y100.872000 E10.5612
G1 X131.733000 Y101.737000 E10.59222
G1 X131.788000 Y101.893000 E10.59772
G1 X131.858000 Y102.099000 E10.60496
G1 X131.994000 Y102.515000 E10.61951
G1 X146.371000 Y148.297000 E12.21555
G1 X146.597000 Y149.051000 E12.24173
G1 X146.822000 Y149.944000 E12.27236
G1 X146.968000 Y150.853000 E12.30298
G1 X147.032000 Y151.686000 E12.33076
G1 X147.039000 Y151.874000 E12.33702
G1 X147.045000 Y152.140000 E12.34587
G1 X147.050000 Y152.600000 E12.36117
G1 X147.049000 Y154.144000 E12.41253
G1 X147.040000 Y154.871000 E12.43671
G1 X146.989000 Y155.790000 E12.46732
G1 X146.858000 Y156.702000 E12.49797
G1 X146.648000 Y157.598000 E12.52857
G1 X146.362000 Y158.473000 E12.55919
G1 X146.001000 Y159.320000 E12.58981
G1 X145.567000 Y160.132000 E12.62044
G1 X145.065000 Y160.904000 E12.65107
G1 X144.497000 Y161.629000 E12.6817
G1 X143.869000 Y162.302000 E12.71231
G1 X143.185000 Y162.918000 E12.74293
G1 X142.450000 Y163.472000 E12.77354
G1 X141.670000 Y163.961000 E12.80416
G1 X140.850000 Y164.380000 E12.83479
G1 X139.997000 Y164.726000 E12.86541
G1 X139.117000 Y164.997000 E12.89603
G1 X138.217000 Y165.190000 E12.92665
G1 X137.303000 Y165.305000 E12.95729
G1 X136.738000 Y165.336000 E12.97611
G1 X136.417000 Y165.345000 E12.98679
G1 X136.120000 Y165.349000 E12.99667
G1 X122.370000 Y165.348000 E13.45399
G1 X121.672000 Y165.338000 E13.47721
G1 X120.753000 Y165.285000 E13.50783
G1 X119.730000 Y165.130000 E13.54224
G1 X118.836000 Y164.911000 E13.57285
G1 X117.573000 Y164.453000 E13.61754
G1 X117.080000 Y164.237000 E13.63544
G1 X115.398000 Y163.477000 E13.69683
G1 X113.050000 Y162.495000 E13.78148
G1 X110.768000 Y161.614000 E13.86284
G1 X108.330000 Y160.753000 E13.94884
G1 X105.924000 Y159.980000 E14.03289
G1 X103.487000 Y159.271000 E14.1173
G1 X101.026000 Y158.631000 E14.20188
G1 X98.574000 Y158.066000 E14.28557
G1 X96.158000 Y157.580000 E14.36754
G1 X93.589000 Y157.140000 E14.45423
G1 X91.089000 Y156.783000 E14.53822
G1 X88.614000 Y156.503000 E14.62106
G1 X86.055000 Y156.285000 E14.70648
G1 X83.489000 Y156.140000 E14.79197
G1 X83.289000 Y156.131000 E14.79863
G1 X82.372000 Y156.050000 E14.82924
G1 X81.466000 Y155.891000 E14.85984
G1 X80.576000 Y155.653000 E14.89048
G1 X79.711000 Y155.339000 E14.92109
G1 X78.876000 Y154.951000 E14.95171
G1 X78.078000 Y154.492000 E14.98233
G1 X77.323000 Y153.965000 E15.01295
G1 X76.616000 Y153.375000 E15.04358
G1 X75.963000 Y152.726000 E15.0742
G1 X75.369000 Y152.023000 E15.10481
G1 X74.838000 Y151.271000 E15.13543
G1 X74.374000 Y150.475000 E15.16608
G1 X74.105000 Y149.904000 E15.18707
G1 X74.100000 Y149.906000 E15.18725
G1 X73.857000 Y149.367000 E15.20691
G1 X73.132000 Y147.703000 E15.26728
G1 X72.038000 Y145.375000 E15.35284
G1 X70.913000 Y143.148000 E15.43582
G1 X69.715000 Y140.933000 E15.51958
G1 X68.437000 Y138.721000 E15.60455
G1 X67.116000 Y136.580000 E15.68822
G1 X65.713000 Y134.441000 E15.7733
G1 X64.840000 Y133.176000 E15.82442
G1 X64.350000 Y132.396000 E15.85506
G1 X63.930000 Y131.577000 E15.88567
G1 X63.582000 Y130.724000 E15.91631
G1 X63.310000 Y129.845000 E15.94692
G1 X63.115000 Y128.945000 E15.97754
G1 X62.999000 Y128.032000 E16.00816
G1 X62.964000 Y127.326000 E16.03167
G1 X62.951000 Y126.523000 E16.05838
G1 X62.950000 Y121.858000 E16.21354
G1 X62.961000 Y121.004000 E16.24194
G1 X63.014000 Y120.085000 E16.27256
G1 X63.147000 Y119.174000 E16.30318
G1 X63.358000 Y118.278000 E16.3338
G1 X63.646000 Y117.404000 E16.3644
G1 X64.009000 Y116.557000 E16.39505
G1 X64.444000 Y115.746000 E16.42566
G1 X65.124000 Y114.737000 E16.46613
G1 X66.759000 Y112.588000 E16.55594
G1 X68.235000 Y110.531000 E16.64015
G1 X69.649000 Y108.436000 E16.72422
G1 X71.003000 Y106.304000 E16.80822
G1 X72.300000 Y104.126000 E16.89253
G1 X73.528000 Y101.925000 E16.97636
G1 X73.967000 Y101.084000 E17.00791
G1 X74.043000 Y100.941000 E17.0133
G1 X74.436000 Y100.215000 E17.04076
G1 X74.909000 Y99.425000 E17.07138
G1 X75.449000 Y98.679000 E17.10201
G1 X76.051000 Y97.983000 E17.13262
G0 F6000.0 X76.378000 Y98.220000
G1 F1200.0 X77.029000 Y97.595000 E17.16263
G1 X77.734000 Y97.030000 E17.19268
G1 X78.486000 Y96.529000 E17.22274
G1 X79.279000 Y96.097000 E17.25277
G1 X80.107000 Y95.737000 E17.2828
G1 X80.963000 Y95.451000 E17.31282
G1 X81.842000 Y95.243000 E17.34286
G1 X82.736000 Y95.112000 E17.37292
G1 X83.443000 Y95.066000 E17.39648
G1 X83.767000 Y95.056000 E17.40726
G1 X84.082000 Y95.051000 E17.41774
G1 X121.184000 Y95.053000 E18.65176
G1 X121.882000 Y95.063000 E18.67498
G1 X122.784000 Y95.116000 E18.70503
G1 X123.677000 Y95.248000 E18.73505
G1 X124.555000 Y95.459000 E18.76509
G1 X125.411000 Y95.747000 E18.79512
G1 X126.238000 Y96.109000 E18.82515
G1 X127.030000 Y96.544000 E18.8552
G1 X127.781000 Y97.046000 E18.88525
G1 X128.484000 Y97.613000 E18.91529
G1 X129.134000 Y98.240000 E18.94533
G1 X129.726000 Y98.922000 E18.97536
G1 X130.256000 Y99.653000 E19.00539
G1 X130.718000 Y100.429000 E19.03543
G1 X131.111000 Y101.242000 E19.06547
G1 X131.356000 Y101.870000 E19.08789
G1 X131.411000 Y102.026000 E19.09339
G1 X131.568000 Y102.497000 E19.1099
G1 X146.033000 Y148.558000 E20.71566
G1 X146.214000 Y149.165000 E20.73673
G1 X146.433000 Y150.041000 E20.76676
G1 X146.574000 Y150.933000 E20.7968
G1 X146.632000 Y151.700000 E20.82238
G1 X146.639000 Y151.888000 E20.82864
G1 X146.645000 Y152.145000 E20.83719
G1 X146.650000 Y152.600000 E20.85233
G1 X146.649000 Y154.139000 E20.90351
G1 X146.640000 Y154.866000 E20.9277
G1 X146.589000 Y155.768000 E20.95774
G1 X146.458000 Y156.662000 E20.9878
G1 X146.249000 Y157.540000 E21.01781
G1 X145.963000 Y158.397000 E21.04786
G1 X145.602000 Y159.225000 E21.07791
G1 X145.170000 Y160.017000 E21.10791
G1 X144.669000 Y160.769000 E21.13797
G1 X144.103000 Y161.473000 E21.16801
G1 X143.478000 Y162.124000 E21.19803
G1 X142.797000 Y162.718000 E21.22808
G1 X142.066000 Y163.249000 E21.25813
G1 X141.292000 Y163.713000 E21.28815
G1 X140.479000 Y164.107000 E21.3182
G1 X139.635000 Y164.427000 E21.34822
G1 X138.765000 Y164.672000 E21.37828
G1 X137.878000 Y164.838000 E21.40829
G1 X136.727000 Y164.936000 E21.44671
G1 X136.406000 Y164.945000 E21.4574
G1 X136.120000 Y164.949000 E21.46691
G1 X122.376000 Y164.948000 E21.92404
G1 X121.678000 Y164.938000 E21.94725
G1 X120.776000 Y164.885000 E21.97731
G1 X119.809000 Y164.738000 E22.00984
G1 X118.932000 Y164.522000 E22.03988
G1 X117.733000 Y164.086000 E22.08231
G1 X117.244000 Y163.872000 E22.10007
G1 X115.555000 Y163.109000 E22.16171
G1 X113.213000 Y162.129000 E22.24615
G1 X110.909000 Y161.240000 E22.32829
G1 X108.448000 Y160.371000 E22.41509
G1 X106.043000 Y159.598000 E22.49911
G1 X103.594000 Y158.885000 E22.58395
G1 X101.112000 Y158.240000 E22.66924
G1 X98.671000 Y157.677000 E22.75256
G1 X96.199000 Y157.180000 E22.83643
G1 X93.682000 Y156.749000 E22.92136
G1 X91.154000 Y156.389000 E23.00629
G1 X88.622000 Y156.101000 E23.09105
G1 X86.112000 Y155.888000 E23.17483
G1 X83.444000 Y155.737000 E23.26371
G1 X83.307000 Y155.731000 E23.26827
G1 X82.408000 Y155.651000 E23.29829
G1 X81.518000 Y155.493000 E23.32836
G1 X80.647000 Y155.256000 E23.35838
G1 X79.800000 Y154.943000 E23.38841
G1 X78.984000 Y154.556000 E23.41845
G1 X78.205000 Y154.098000 E23.44851
G1 X77.470000 Y153.574000 E23.47853
G1 X76.784000 Y152.986000 E23.50858
G1 X76.153000 Y152.340000 E23.53862
G1 X75.581000 Y151.641000 E23.56866
G1 X75.074000 Y150.894000 E23.59868
G1 X74.634000 Y150.105000 E23.62873
G1 X74.470000 Y149.738000 E23.6421
G1 X74.464000 Y149.741000 E23.64232
G1 X74.223000 Y149.207000 E23.66181
G1 X73.491000 Y147.527000 E23.72276
G1 X72.399000 Y145.204000 E23.80813
G1 X71.264000 Y142.957000 E23.89186
G1 X70.047000 Y140.706000 E23.97697
G1 X68.805000 Y138.557000 E24.05953
G1 X67.458000 Y136.373000 E24.14487
G1 X66.024000 Y134.187000 E24.23183
G1 X65.169000 Y132.948000 E24.2819
G1 X64.689000 Y132.183000 E24.31193
G1 X64.279000 Y131.379000 E24.34195
G1 X63.942000 Y130.541000 E24.37199
G1 X63.680000 Y129.677000 E24.40202
G1 X63.495000 Y128.792000 E24.43209
G1 X63.390000 Y127.896000 E24.4621
G1 X63.364000 Y127.319000 E24.48131
G1 X63.351000 Y126.516000 E24.50802
G1 X63.350000 Y121.858000 E24.66295
G1 X63.361000 Y121.010000 E24.69115
G1 X63.414000 Y120.108000 E24.7212
G1 X63.546000 Y119.215000 E24.75123
G1 X63.757000 Y118.337000 E24.78126
G1 X64.045000 Y117.481000 E24.8113
G1 X64.407000 Y116.654000 E24.84133
G1 X64.841000 Y115.862000 E24.87137
G1 X65.442000 Y114.979000 E24.90689
G1 X67.087000 Y112.817000 E24.99725
G1 X68.559000 Y110.765000 E25.08124
G1 X69.991000 Y108.644000 E25.16636
G1 X71.351000 Y106.501000 E25.25078
G1 X72.635000 Y104.346000 E25.33421
G1 X73.890000 Y102.098000 E25.41984
G1 X74.395000 Y101.131000 E25.45613
G1 X74.788000 Y100.405000 E25.48359
G1 X75.253000 Y99.631000 E25.51362
G1 X75.784000 Y98.901000 E25.54364
G1 X76.378000 Y98.220000 E25.5737
G1 F1500.0 E19.0737
;MESH:review laser (1).stl
G0 F6000.0 X114.171000 Y111.338000
G0 X112.769000 Y111.789000
G0 X113.850000 Y112.703000
G0 X115.052000 Y113.256000
;TYPE:WALL-INNER
G1 F1500.0 E25.5737
G1 F1200.0 X115.735000 Y113.149000 E25.59669
G1 X116.350000 Y112.834000 E25.61967
G1 X116.839000 Y112.346000 E25.64265
G1 X117.152000 Y111.730000 E25.66563
G1 X117.259000 Y111.049000 E25.68856
G1 X117.152000 Y110.367000 E25.71152
G1 X116.839000 Y109.751000 E25.7345
G1 X116.350000 Y109.262000 E25.7575
G1 X115.735000 Y108.949000 E25.78045
G1 X115.052000 Y108.840000 E25.80346
G1 X114.370000 Y108.949000 E25.82643
G1 X113.754000 Y109.262000 E25.84941
G1 X113.265000 Y109.751000 E25.87241
G1 X112.952000 Y110.367000 E25.89539
G1 X112.845000 Y111.049000 E25.91835
G1 X112.952000 Y111.730000 E25.94128
G1 X113.265000 Y112.346000 E25.96426
G1 X113.754000 Y112.834000 E25.98724
