;FLAVOR:Marlin
;TIME:10706
;Filament used: 6.42551m
;Layer height: 0.2
;MINX:67.55
;MINY:74.251
;MINZ:0.2
;MAXX:152.45
;MAXY:145.749
;MAXZ:43.2
;Generated with Cura_SteamEngine 4.7.1
M140 S60
M105
M190 S60
M104 S200
M105
M109 S200
M82 ;absolute extrusion mode
; Ender 3 Custom Start G-code
G92 E0 ; Reset Extruder
G28 ; Home all axes
G1 Z2.000000 F3000.0
G1 X0.100000 Y20.000000 Z0.300000 F5000.0
G1 X0.100000 Y200.000000 Z0.300000 F1500.0 E15.0
G1 X0.400000 Y200.000000 Z0.300000 F5000.0
G1 X0.400000 Y20.000000 Z0.300000 F1500.0 E30.0
G92 E0 ; Reset Extruder
G1 Z2.000000 F3000.0
G1 X5.000000 Y20.000000 Z0.300000 F5000.0
G92 E0
G92 E0
G1 F1500.0 E0
;LAYER_COUNT:216
;LAYER:0
M107
G0 F6000.0 X80.725000 Y77.747000 Z0.200000
;TYPE:SKIRT
G1 F1500.0 E0.0
G1 F1200.0 X81.394000 Y77.090000 E0.03119
G1 X82.117000 Y76.492000 E0.06239
G1 X82.888000 Y75.958000 E0.09359
G1 X83.702000 Y75.492000 E0.12478
G1 X84.552000 Y75.097000 E0.15596
G1 X85.433000 Y74.776000 E0.18714
G1 X86.338000 Y74.530000 E0.21834
G1 X87.261000 Y74.363000 E0.24953
G1 X88.419000 Y74.266000 E0.28818
G1 X88.743000 Y74.256000 E0.29897
G1 X89.082000 Y74.251000 E0.31024
G1 X126.196000 Y74.253000 E1.54466
G1 X126.894000 Y74.263000 E1.56788
G1 X127.830000 Y74.317000 E1.59906
G1 X128.758000 Y74.449000 E1.63024
G1 X129.672000 Y74.661000 E1.66144
G1 X130.564000 Y74.950000 E1.69263
G1 X131.429000 Y75.313000 E1.72383
G1 X132.259000 Y75.749000 E1.75501
G1 X133.050000 Y76.254000 E1.78623
G1 X133.794000 Y76.825000 E1.81742
G1 X134.487000 Y77.457000 E1.84862
G1 X135.124000 Y78.145000 E1.8798
G1 X135.699000 Y78.886000 E1.911
G1 X136.210000 Y79.672000 E1.94218
G1 X136.652000 Y80.500000 E1.97339
G1 X137.110000 Y81.604000 E2.01315
G1 X137.238000 Y81.974000 E2.02617
G1 X137.376000 Y82.395000 E2.04091
G1 X151.753000 Y128.177000 E3.63694
G1 X151.980000 Y128.937000 E3.66332
G1 X152.210000 Y129.846000 E3.69451
G1 X152.361000 Y130.772000 E3.72571
G1 X152.431000 Y131.671000 E3.7557
G1 X152.438000 Y131.859000 E3.76196
G1 X152.445000 Y132.135000 E3.77114
G1 X152.450000 Y132.600000 E3.78661
G1 X152.449000 Y134.149000 E3.83813
G1 X152.440000 Y134.876000 E3.86231
G1 X152.389000 Y135.813000 E3.89352
G1 X152.257000 Y136.741000 E3.9247
G1 X152.048000 Y137.655000 E3.95588
G1 X151.761000 Y138.548000 E3.98708
G1 X151.399000 Y139.414000 E4.0183
G1 X150.965000 Y140.245000 E4.04948
G1 X150.461000 Y141.036000 E4.08068
G1 X149.892000 Y141.781000 E4.11186
G1 X149.261000 Y142.476000 E4.14308
G1 X148.574000 Y143.114000 E4.17426
G1 X147.835000 Y143.691000 E4.20544
G1 X147.049000 Y144.203000 E4.23664
G1 X146.223000 Y144.646000 E4.26782
G1 X145.361000 Y145.018000 E4.29904
G1 X144.472000 Y145.314000 E4.33021
G1 X143.560000 Y145.534000 E4.36141
G1 X142.633000 Y145.675000 E4.3926
G1 X141.749000 Y145.736000 E4.42207
G1 X141.428000 Y145.745000 E4.43275
G1 X141.120000 Y145.749000 E4.443
G1 X127.364000 Y145.748000 E4.90052
G1 X126.666000 Y145.738000 E4.92374
G1 X125.730000 Y145.684000 E4.95492
G1 X124.652000 Y145.522000 E4.99118
G1 X123.741000 Y145.299000 E5.02238
G1 X122.852000 Y145.000000 E5.05357
G1 X122.413000 Y144.819000 E5.06936
G1 X121.915000 Y144.601000 E5.08745
G1 X120.245000 Y143.847000 E5.14839
G1 X117.931000 Y142.878000 E5.23183
G1 X115.628000 Y141.990000 E5.31392
G1 X113.179000 Y141.125000 E5.40031
G1 X110.796000 Y140.359000 E5.48356
G1 X108.381000 Y139.656000 E5.56722
G1 X105.950000 Y139.024000 E5.65076
G1 X103.477000 Y138.454000 E5.73517
G1 X101.083000 Y137.973000 E5.81639
G1 X98.536000 Y137.536000 E5.90234
G1 X96.054000 Y137.183000 E5.98572
G1 X93.533000 Y136.896000 E6.07011
G1 X91.072000 Y136.687000 E6.15226
G1 X88.363000 Y136.534000 E6.24251
G1 X88.272000 Y136.530000 E6.24553
G1 X87.338000 Y136.449000 E6.27672
G1 X86.413000 Y136.289000 E6.30794
G1 X85.506000 Y136.050000 E6.33914
G1 X84.623000 Y135.735000 E6.37032
G1 X83.770000 Y135.346000 E6.4015
G1 X82.953000 Y134.886000 E6.43268
G1 X82.178000 Y134.357000 E6.46389
G1 X81.451000 Y133.765000 E6.49508
G1 X80.777000 Y133.113000 E6.52627
G1 X80.161000 Y132.405000 E6.55748
G1 X79.607000 Y131.648000 E6.58868
G1 X79.120000 Y130.847000 E6.61986
G1 X78.703000 Y130.007000 E6.65105
G1 X78.683000 Y129.955000 E6.6529
G1 X78.490000 Y129.527000 E6.66852
G1 X77.763000 Y127.858000 E6.72907
G1 X76.683000 Y125.561000 E6.81349
G1 X75.554000 Y123.326000 E6.89677
G1 X74.359000 Y121.117000 E6.9803
G1 X73.108000 Y118.951000 E7.0635
G1 X71.774000 Y116.788000 E7.14802
G1 X70.388000 Y114.675000 E7.23207
G1 X69.510000 Y113.403000 E7.28348
G1 X69.011000 Y112.609000 E7.31467
G1 X68.581000 Y111.776000 E7.34585
G1 X68.224000 Y110.908000 E7.37706
G1 X67.941000 Y110.014000 E7.40825
G1 X67.736000 Y109.099000 E7.43944
G1 X67.610000 Y108.170000 E7.47062
G1 X67.564000 Y107.332000 E7.49854
G1 X67.551000 Y106.529000 E7.52525
G1 X67.550000 Y101.858000 E7.68061
G1 X67.561000 Y100.999000 E7.70918
G1 X67.614000 Y100.062000 E7.74039
G1 X67.747000 Y99.134000 E7.77157
G1 X67.959000 Y98.220000 E7.80278
G1 X68.247000 Y97.328000 E7.83396
G1 X68.611000 Y96.463000 E7.86517
G1 X69.047000 Y95.633000 E7.89635
G1 X69.806000 Y94.495000 E7.94185
G1 X71.432000 Y92.358000 E8.03116
G1 X72.895000 Y90.319000 E8.11463
G1 X74.312000 Y88.219000 E8.19889
G1 X75.664000 Y86.090000 E8.28277
G1 X76.965000 Y83.906000 E8.36732
G1 X78.167000 Y81.751000 E8.44939
G1 X78.691000 Y80.750000 E8.48697
G1 X79.084000 Y80.024000 E8.51443
G1 X79.566000 Y79.219000 E8.54564
G1 X80.114000 Y78.458000 E8.57683
G1 X80.725000 Y77.747000 E8.60801
G0 F6000.0 X81.051000 Y77.983000
G1 F1200.0 X81.712000 Y77.342000 E8.63863
G1 X82.426000 Y76.760000 E8.66927
G1 X83.187000 Y76.243000 E8.69987
G1 X83.991000 Y75.793000 E8.73052
G1 X84.830000 Y75.416000 E8.76111
G1 X85.699000 Y75.112000 E8.79173
G1 X86.592000 Y74.885000 E8.82238
G1 X87.500000 Y74.736000 E8.85298
G1 X88.431000 Y74.666000 E8.88403
G1 X88.755000 Y74.656000 E8.89481
G1 X89.082000 Y74.651000 E8.90569
G1 X126.190000 Y74.653000 E10.13991
G1 X126.888000 Y74.663000 E10.16313
G1 X127.807000 Y74.716000 E10.19374
G1 X128.718000 Y74.849000 E10.22436
G1 X129.614000 Y75.060000 E10.25498
G1 X130.488000 Y75.348000 E10.28559
G1 X131.335000 Y75.711000 E10.31624
G1 X132.146000 Y76.146000 E10.34685
G1 X132.916000 Y76.650000 E10.37745
G1 X133.640000 Y77.219000 E10.40808
G1 X134.312000 Y77.849000 E10.43872
G1 X134.927000 Y78.534000 E10.46934
G1 X135.480000 Y79.270000 E10.49996
G1 X135.967000 Y80.051000 E10.53057
G1 X136.384000 Y80.872000 E10.5612
G1 X136.733000 Y81.737000 E10.59222
G1 X136.788000 Y81.893000 E10.59772
G1 X136.858000 Y82.099000 E10.60496
G1 X136.994000 Y82.515000 E10.61951
G1 X151.371000 Y128.297000 E12.21555
G1 X151.597000 Y129.051000 E12.24173
G1 X151.822000 Y129.944000 E12.27236
G1 X151.968000 Y130.853000 E12.30298
G1 X152.032000 Y131.686000 E12.33076
G1 X152.039000 Y131.874000 E12.33702
G1 X152.045000 Y132.140000 E12.34587
G1 X152.050000 Y132.600000 E12.36117
G1 X152.049000 Y134.144000 E12.41253
G1 X152.040000 Y134.871000 E12.43671
G1 X151.989000 Y135.790000 E12.46732
G1 X151.858000 Y136.702000 E12.49797
G1 X151.648000 Y137.598000 E12.52857
G1 X151.362000 Y138.473000 E12.55919
G1 X151.001000 Y139.320000 E12.58981
G1 X150.567000 Y140.132000 E12.62044
G1 X150.065000 Y140.904000 E12.65107
G1 X149.497000 Y141.629000 E12.6817
G1 X148.869000 Y142.302000 E12.71231
G1 X148.185000 Y142.918000 E12.74293
G1 X147.450000 Y143.472000 E12.77354
G1 X146.670000 Y143.961000 E12.80416
G1 X145.850000 Y144.380000 E12.83479
G1 X144.997000 Y144.726000 E12.86541
G1 X144.117000 Y144.997000 E12.89603
G1 X143.217000 Y145.190000 E12.92665
G1 X142.303000 Y145.305000 E12.95729
G1 X141.738000 Y145.336000 E12.97611
G1 X141.417000 Y145.345000 E12.98679
G1 X141.120000 Y145.349000 E12.99667
G1 X127.370000 Y145.348000 E13.45399
G1 X126.672000 Y145.338000 E13.47721
G1 X125.753000 Y145.285000 E13.50783
G1 X124.730000 Y145.130000 E13.54224
G1 X123.836000 Y144.911000 E13.57285
G1 X122.573000 Y144.453000 E13.61754
G1 X122.080000 Y144.237000 E13.63544
G1 X120.398000 Y143.477000 E13.69683
G1 X118.050000 Y142.495000 E13.78148
G1 X115.768000 Y141.614000 E13.86284
G1 X113.330000 Y140.753000 E13.94884
G1 X110.924000 Y139.980000 E14.03289
G1 X108.487000 Y139.271000 E14.1173
G1 X106.026000 Y138.631000 E14.20188
G1 X103.574000 Y138.066000 E14.28557
G1 X101.158000 Y137.580000 E14.36754
G1 X98.589000 Y137.140000 E14.45423
G1 X96.089000 Y136.783000 E14.53822
G1 X93.614000 Y136.503000 E14.62106
G1 X91.055000 Y136.285000 E14.70648
G1 X88.489000 Y136.140000 E14.79197
G1 X88.289000 Y136.131000 E14.79863
G1 X87.372000 Y136.050000 E14.82924
G1 X86.466000 Y135.891000 E14.85984
G1 X85.576000 Y135.653000 E14.89048
G1 X84.711000 Y135.339000 E14.92109
G1 X83.876000 Y134.951000 E14.95171
G1 X83.078000 Y134.492000 E14.98233
G1 X82.323000 Y133.965000 E15.01295
G1 X81.616000 Y133.375000 E15.04358
G1 X80.963000 Y132.726000 E15.0742
G1 X80.369000 Y132.023000 E15.10481
G1 X79.838000 Y131.271000 E15.13543
G1 X79.374000 Y130.475000 E15.16608
G1 X79.105000 Y129.904000 E15.18707
G1 X79.100000 Y129.906000 E15.18725
G1 X78.857000 Y129.367000 E15.20691
G1 X78.132000 Y127.703000 E15.26728
G1 X77.038000 Y125.375000 E15.35284
G1 X75.913000 Y123.148000 E15.43582
G1 X74.715000 Y120.933000 E15.51958
G1 X73.437000 Y118.721000 E15.60455
G1 X72.116000 Y116.580000 E15.68822
G1 X70.713000 Y114.441000 E15.7733
G1 X69.840000 Y113.176000 E15.82442
G1 X69.350000 Y112.396000 E15.85506
G1 X68.930000 Y111.577000 E15.88567
G1 X68.582000 Y110.724000 E15.91631
G1 X68.310000 Y109.845000 E15.94692
G1 X68.115000 Y108.945000 E15.97754
G1 X67.999000 Y108.032000 E16.00816
G1 X67.964000 Y107.326000 E16.03167
G1 X67.951000 Y106.523000 E16.05838
G1 X67.950000 Y101.858000 E16.21354
G1 X67.961000 Y101.004000 E16.24194
G1 X68.014000 Y100.085000 E16.27256
G1 X68.147000 Y99.174000 E16.30318
G1 X68.358000 Y98.278000 E16.3338
G1 X68.646000 Y97.404000 E16.3644
G1 X69.009000 Y96.557000 E16.39505
G1 X69.444000 Y95.746000 E16.42566
G1 X70.124000 Y94.737000 E16.46613
G1 X71.759000 Y92.588000 E16.55594
G1 X73.235000 Y90.531000 E16.64015
G1 X74.649000 Y88.436000 E16.72422
G1 X76.003000 Y86.304000 E16.80822
G1 X77.300000 Y84.126000 E16.89253
G1 X78.528000 Y81.925000 E16.97636
G1 X78.967000 Y81.084000 E17.00791
G1 X79.043000 Y80.941000 E17.0133
G1 X79.436000 Y80.215000 E17.04076
G1 X79.909000 Y79.425000 E17.07138
G1 X80.449000 Y78.679000 E17.10201
G1 X81.051000 Y77.983000 E17.13262
G0 F6000.0 X81.378000 Y78.220000
G1 F1200.0 X82.029000 Y77.595000 E17.16263
G1 X82.734000 Y77.030000 E17.19268
G1 X83.486000 Y76.529000 E17.22274
G1 X84.279000 Y76.097000 E17.25277
G1 X85.107000 Y75.737000 E17.2828
G1 X85.963000 Y75.451000 E17.31282
G1 X86.842000 Y75.243000 E17.34286
G1 X87.736000 Y75.112000 E17.37292
G1 X88.443000 Y75.066000 E17.39648
G1 X88.767000 Y75.056000 E17.40726
G1 X89.082000 Y75.051000 E17.41774
G1 X126.184000 Y75.053000 E18.65176
G1 X126.882000 Y75.063000 E18.67498
G1 X127.784000 Y75.116000 E18.70503
G1 X128.677000 Y75.248000 E18.73505
G1 X129.555000 Y75.459000 E18.76509
G1 X130.411000 Y75.747000 E18.79512
G1 X131.238000 Y76.109000 E18.82515
G1 X132.030000 Y76.544000 E18.8552
G1 X132.781000 Y77.046000 E18.88525
G1 X133.484000 Y77.613000 E18.91529
G1 X134.134000 Y78.240000 E18.94533
G1 X134.726000 Y78.922000 E18.97536
G1 X135.256000 Y79.653000 E19.00539
G1 X135.718000 Y80.429000 E19.03543
G1 X136.111000 Y81.242000 E19.06547
G1 X136.356000 Y81.870000 E19.08789
G1 X136.411000 Y82.026000 E19.09339
G1 X136.568000 Y82.497000 E19.1099
G1 X151.033000 Y128.558000 E20.71566
G1 X151.214000 Y129.165000 E20.73673
G1 X151.433000 Y130.041000 E20.76676
G1 X151.574000 Y130.933000 E20.7968
G1 X151.632000 Y131.700000 E20.82238
G1 X151.639000 Y131.888000 E20.82864
G1 X151.645000 Y132.145000 E20.83719
G1 X151.650000 Y132.600000 E20.85233
G1 X151.649000 Y134.139000 E20.90351
G1 X151.640000 Y134.866000 E20.9277
G1 X151.589000 Y135.768000 E20.95774
G1 X151.458000 Y136.662000 E20.9878
G1 X151.249000 Y137.540000 E21.01781
G1 X150.963000 Y138.397000 E21.04786
G1 X150.602000 Y139.225000 E21.07791
G1 X150.170000 Y140.017000 E21.10791
G1 X149.669000 Y140.769000 E21.13797
G1 X149.103000 Y141.473000 E21.16801
G1 X148.478000 Y142.124000 E21.19803
G1 X147.797000 Y142.718000 E21.22808
G1 X147.066000 Y143.249000 E21.25813
G1 X146.292000 Y143.713000 E21.28815
G1 X145.479000 Y144.107000 E21.3182
G1 X144.635000 Y144.427000 E21.34822
G1 X143.765000 Y144.672000 E21.37828
G1 X142.878000 Y144.838000 E21.40829
G1 X141.727000 Y144.936000 E21.44671
G1 X141.406000 Y144.945000 E21.4574
G1 X141.120000 Y144.949000 E21.46691
G1 X127.376000 Y144.948000 E21.92404
G1 X126.678000 Y144.938000 E21.94725
G1 X125.776000 Y144.885000 E21.97731
G1 X124.809000 Y144.738000 E22.00984
G1 X123.932000 Y144.522000 E22.03988
G1 X122.733000 Y144.086000 E22.08231
G1 X122.244000 Y143.872000 E22.10007
G1 X120.555000 Y143.109000 E22.16171
G1 X118.213000 Y142.129000 E22.24615
G1 X115.909000 Y141.240000 E22.32829
G1 X113.448000 Y140.371000 E22.41509
G1 X111.043000 Y139.598000 E22.49911
G1 X108.594000 Y138.885000 E22.58395
G1 X106.112000 Y138.240000 E22.66924
G1 X103.671000 Y137.677000 E22.75256
G1 X101.199000 Y137.180000 E22.83643
G1 X98.682000 Y136.749000 E22.92136
G1 X96.154000 Y136.389000 E23.00629
G1 X93.622000 Y136.101000 E23.09105
G1 X91.112000 Y135.888000 E23.17483
G1 X88.444000 Y135.737000 E23.26371
G1 X88.307000 Y135.731000 E23.26827
G1 X87.408000 Y135.651000 E23.29829
G1 X86.518000 Y135.493000 E23.32836
G1 X85.647000 Y135.256000 E23.35838
G1 X84.800000 Y134.943000 E23.38841
G1 X83.984000 Y134.556000 E23.41845
G1 X83.205000 Y134.098000 E23.44851
G1 X82.470000 Y133.574000 E23.47853
G1 X81.784000 Y132.986000 E23.50858
G1 X81.153000 Y132.340000 E23.53862
G1 X80.581000 Y131.641000 E23.56866
G1 X80.074000 Y130.894000 E23.59868
G1 X79.634000 Y130.105000 E23.62873
G1 X79.470000 Y129.738000 E23.6421
G1 X79.464000 Y129.741000 E23.64232
G1 X79.223000 Y129.207000 E23.66181
G1 X78.491000 Y127.527000 E23.72276
G1 X77.399000 Y125.204000 E23.80813
G1 X76.264000 Y122.957000 E23.89186
G1 X75.047000 Y120.706000 E23.97697
G1 X73.805000 Y118.557000 E24.05953
G1 X72.458000 Y116.373000 E24.14487
G1 X71.024000 Y114.187000 E24.23183
G1 X70.169000 Y112.948000 E24.2819
G1 X69.689000 Y112.183000 E24.31193
G1 X69.279000 Y111.379000 E24.34195
G1 X68.942000 Y110.541000 E24.37199
G1 X68.680000 Y109.677000 E24.40202
G1 X68.495000 Y108.792000 E24.43209
G1 X68.390000 Y107.896000 E24.4621
G1 X68.364000 Y107.319000 E24.48131
G1 X68.351000 Y106.516000 E24.50802
G1 X68.350000 Y101.858000 E24.66295
G1 X68.361000 Y101.010000 E24.69115
G1 X68.414000 Y100.108000 E24.7212
G1 X68.546000 Y99.215000 E24.75123
G1 X68.757000 Y98.337000 E24.78126
G1 X69.045000 Y97.481000 E24.8113
G1 X69.407000 Y96.654000 E24.84133
G1 X69.841000 Y95.862000 E24.87137
G1 X70.442000 Y94.979000 E24.90689
G1 X72.087000 Y92.817000 E24.99725
G1 X73.559000 Y90.765000 E25.08124
G1 X74.991000 Y88.644000 E25.16636
G1 X76.351000 Y86.501000 E25.25078
G1 X77.635000 Y84.346000 E25.33421
G1 X78.890000 Y82.098000 E25.41984
G1 X79.395000 Y81.131000 E25.45613
G1 X79.788000 Y80.405000 E25.48359
G1 X80.253000 Y79.631000 E25.51362
G1 X80.784000 Y78.901000 E25.54364
G1 X81.378000 Y78.220000 E25.5737
G1 F1500.0 E19.0737
;MESH:review laser (1).stl
G0 F6000.0 X119.171000 Y91.338000
G0 X117.769000 Y91.789000
G0 X118.850000 Y92.703000
G0 X120.052000 Y93.256000
;TYPE:WALL-INNER
G1 F1500.0 E25.5737
G1 F1200.0 X120.735000 Y93.149000 E25.59669
G1 X121.350000 Y92.834000 E25.61967
G1 X121.839000 Y92.346000 E25.64265
G1 X122.152000 Y91.730000 E25.66563
G1 X122.259000 Y91.049000 E25.68856
G1 X122.152000 Y90.367000 E25.71152
G1 X121.839000 Y89.751000 E25.7345
G1 X121.350000 Y89.262000 E25.7575
G1 X120.735000 Y88.949000 E25.78045
G1 X120.052000 Y88.840000 E25.80346
G1 X119.370000 Y88.949000 E25.82643
G1 X118.754000 Y89.262000 E25.84941
G1 X118.265000 Y89.751000 E25.87241
G1 X117.952000 Y90.367000 E25.89539
G1 X117.845000 Y91.049000 E25.91835
G1 X117.952000 Y91.730000 E25.94128
G1 X118.265000 Y92.346000 E25.96426
G1 X118.754000 Y92.834000 E25.98724
G1 X119.370000 Y93.149000 E26.01025
G1 X120.052000 Y93.256000 E26.03321
